X: 01070
T: LISA'S REEL
C: Bob McQuillen 5 Aug '74
B: Bob's Note Book 1 #70
R: reel
Z: 2019 John Chambers <jc:trillian.mit.edu>
M: C
L: 1/8
K: G
(3(DEF) \
| G2FG EGDE | G2FG AGAB | G2GB dBGB | cBAG FDEF |
| G2FG EGDE | G2FG AGAB | G2GB dBGB | AGAB G2 :|
|: (3(def) \
| g2gd edBd | cedc BGBd | g2gd edBd | BGAF G2 (3(def) |
| g2gd edBd | cedc BGBd | gage dedc | BGAF G2 :|
%%begintext align
%% Personne ne danse comme
%% la belle Lisa Beaudoin!!
%%endtext

%%sep 1 1 500

%%sep 1 1 500

